img/icons/File_Document.svg

<svg width="24" height="24" viewBox="0 0 24 24" fill="none" xmlns="http://www.w3.org/2000/svg">
<path d="M9 17H15M9 14H15M18.9996 9H14.5996C14.0396 9 13.7598 8.99998 13.5459 8.89099C13.3577 8.79512 13.2049 8.64218 13.109 8.45401C13 8.2401 13 7.96005 13 7.4V3M19 17.8V9.65399C19 9.19048 19.0002 8.95872 18.9502 8.73932C18.9059 8.54475 18.8328 8.35788 18.7332 8.18499C18.6208 7.99002 18.4632 7.81997 18.1483 7.47986L14.9502 4.02588C14.6002 3.64789 14.425 3.45888 14.2168 3.32343C14.0322 3.20337 13.8286 3.11464 13.6151 3.06077C13.3743 3 13.1172 3 12.6021 3H8.2002C7.08009 3 6.51962 3 6.0918 3.21799C5.71547 3.40973 5.40973 3.71572 5.21799 4.09204C5 4.51986 5 5.07991 5 6.20001V17.8C5 18.9201 5 19.4801 5.21799 19.908C5.40973 20.2843 5.71547 20.5902 6.0918 20.782C6.51962 21 7.08009 21 8.2002 21H15.8002C16.9203 21 17.48 21 17.9078 20.782C18.2841 20.5902 18.5905 20.2843 18.7822 19.908C19.0002 19.4801 19 18.9201 19 17.8Z" stroke="white" stroke-width="2" stroke-linecap="round" stroke-linejoin="round"/>
</svg>

<svg width="24" height="24" fill="none" xmlns="http://www.w3.org/2000/svg"><path d="M9 17h6m-6-3h6m4-5h-4.4c-.56 0-.84 0-1.054-.109a1 1 0 0 1-.437-.437C13 8.24 13 7.96 13 7.4V3m6 14.8V9.654c0-.464 0-.695-.05-.915a2 2 0 0 0-.217-.554c-.112-.195-.27-.365-.585-.705L14.95 4.026c-.35-.378-.525-.567-.733-.703a2.003 2.003 0 0 0-.602-.262C13.375 3 13.117 3 12.602 3H8.2c-1.12 0-1.68 0-2.108.218a2 2 0 0 0-.874.874C5 4.52 5 5.08 5 6.2v11.6c0 1.12 0 1.68.218 2.108a2 2 0 0 0 .874.874C6.52 21 7.08 21 8.2 21h7.6c1.12 0 1.68 0 2.108-.218.376-.192.682-.498.874-.874C19 19.48 19 18.92 19 17.8Z" stroke="#fff" stroke-width="2" stroke-linecap="round" stroke-linejoin="round"/></svg>
